public/images/teambuilding.svg

<svg width="130" height="130" viewBox="0 0 130 130" fill="none" xmlns="http://www.w3.org/2000/svg">
<path d="M114.335 105C116.891 99.9993 118.333 94.3346 118.333 88.3333C118.333 68.0826 101.917 51.6666 81.6667 51.6666C61.416 51.6666 45 68.0826 45 88.3333C45 108.584 61.416 125 81.6667 125H125C125 125 118.333 118.333 114.429 105.195M110.667 64.9999C111.323 61.7686 111.667 58.4246 111.667 54.9999C111.667 27.3857 89.2807 4.99994 61.6667 4.99994C34.0524 4.99994 11.6667 27.3857 11.6667 54.9999C11.6667 60.8439 12.6693 66.4539 14.5117 71.6666C21.6732 91.7446 5 105 5 105H48.3333" stroke="#3D2C20" stroke-width="10" stroke-linecap="round" stroke-linejoin="round"/>
</svg>

<svg xmlns="http://www.w3.org/2000/svg" width="130" height="130" fill="none"><path stroke="#3D2C20" stroke-linecap="round" stroke-linejoin="round" stroke-width="10" d="M114.335 105a36.5 36.5 0 0 0 3.998-16.667c0-20.25-16.416-36.666-36.666-36.666C61.416 51.667 45 68.083 45 88.333 45 108.584 61.416 125 81.667 125H125s-6.667-6.667-10.571-19.805M110.667 65c.656-3.231 1-6.575 1-10 0-27.614-22.386-50-50-50s-50 22.386-50 50a49.9 49.9 0 0 0 2.845 16.667C21.673 91.745 5 105 5 105h43.333"/></svg>
